X: 674
T: Offertorium Nro 19
C: Anonim
L: 1/4
M: 4/4
N: Derived from pl-kk--kk-i-382--078_anonim--offertorium-nro-19.krn
%%staves [1 2 3 4]
V: 1
V: 2 clef=alto
V: 3 clef=tenor
V: 4 clef=bass
K: G
[V:1] d [I:setbarnb 1]| 
[V:2] G | 
[V:3] B, | 
[V:4] G,, | 
[V:1] d3d | 
[V:2] G3G | 
[V:3] B,3B, | 
[V:4] G,,3G,, | 
[V:1] d>ddd/ d/ | 
[V:2] G>GGG/ G/ | 
[V:3] B,>B,B,B,/ B,/ | 
[V:4] G,,>G,,G,,G,,/ G,,/ | 
[V:1] ^deze | 
[V:2] AGzG | 
[V:3] B,B,zC | 
[V:4] B,,E,zC, | 
[V:1] e3e | 
[V:2] G3G | 
[V:3] C3C | 
[V:4] C,3C, | 
[V:1] e>eea | 
[V:2] G>GGc | 
[V:3] C>CCE | 
[V:4] C,>C,C,A,, | 
[V:1] f/ f/gzd | 
[V:2] A/ A/GzG | 
[V:3] C/ C/B,zB, | 
[V:4] D,/ D,/G,,z2 | 
[V:1] ddzd | 
[V:2] ^GAzF | 
[V:3] B,CzA, | 
[V:4] zD,F,D, | 
[V:1] ddzg | 
[V:2] F=GzB | 
[V:3] ^A,B,zD | 
[V:4] zG,,B,,G,,/ G,/ | 
[V:1] g>ggg | 
[V:2] B>B_BB | 
[V:3] E>EEE | 
[V:4] E,>E,D,D, | 
[V:1] a2fd | 
[V:2] A2AF | 
[V:3] E2DA, | 
[V:4] ^C,2D,A, | 
[V:1] d/^d<ed/ e/ e/ | 
[V:2] GG/ ^G/AA/ _B/ | 
[V:3] B,B,/ B,/^CC/ C/ | 
[V:4] B,B,/ B,/^CC/ C/ | 
[V:1] f/g/ g/ z/zz/ g/ | 
[V:2] =BBzz/ d/ | 
[V:3] DDzz/ D/ | 
[V:4] D/ D/B,,B,,/_B,,/ B,,/ B,,/ | 
[V:1] ggzg | 
[V:2] ^cczc | 
[V:3] EEzE | 
[V:4] A,,A,,zA,, | 
[V:1] f2ff/ f/ | 
[V:2] ^c2BB/ B/ | 
[V:3] E2DD/ D/ | 
[V:4] ^A,,2=B,,B,,/ B,,/ | 
[V:1] e>ee3/f/ | 
[V:2] B>BAG | 
[V:3] D>DD^C | 
[V:4] G,,>G,,A,,A,, | 
[V:1] !fermata!d4 | 
[V:2] !fermata!^F4 | 
[V:3] !fermata!A,4 | 
[V:4] !fermata!D,4 | 
[V:1] dd/ d/_ed | 
[V:2] =F^F/ F/G=F | 
[V:3] _B,B,/ B,/B,B, | 
[V:4] _B,,B,,/ B,,/B,,B,, | 
[V:1] ^c>c=cd/ c/ | 
[V:2] E>E_EE/ E/ | 
[V:3] G,>G,A,A,/ A,/ | 
[V:4] _B,,>B,,B,,B,,/ B,,/ | 
[V:1] _Bd=ff | 
[V:2] Dzz_A | 
[V:3] _B,B,DD | 
[V:4] _B,,zz_A, | 
[V:1] =f>f_e2 | 
[V:2] GGG^F/ F/ | 
[V:3] D>DC2 | 
[V:4] G,=B,,C,_G,/ G,/ | 
[V:1] _e2d_B | 
[V:2] =F2FD | 
[V:3] C2_B,=F, | 
[V:4] =F,=A,,_B,,B,, | 
[V:1] cd/ d/ _e/ e/d | 
[V:2] _E=F/ F/ G/ G/F | 
[V:3] G,_A,/ A,/ _B,/ B,/B, | 
[V:4] _B,,B,,/ B,,/ B,,/ B,,/B,, | 
[V:1] g>ggg | 
[V:2] _E>_BBG | 
[V:3] _B,>_EEB, | 
[V:4] _E,>E,E,E, | 
[V:1] c3/d//_e//=fd/ d/ | 
[V:2] =F2FG/ G/ | 
[V:3] =A,2_B,=B,/ B,/ | 
[V:4] _E,2D,z | 
[V:1] _ecd_B/ B/ | 
[V:2] C=F_B,_E/ E/ | 
[V:3] CA,_B,G, | 
[V:4] z2z_E,/ E,/ | 
[V:1] cA_BG/ G/ | 
[V:2] _EDDD/ D/ | 
[V:3] G,^F,G,G,/ G,/ | 
[V:4] A,,D,G,,_B,,/ B,,/ | 
[V:1] A2B2 | 
[V:2] _E2F2 | 
[V:3] G,4 | 
[V:4] C,2D,2 | 
[V:1] c^c2d | 
[V:2] GG2G | 
[V:3] G,_B,2B, | 
[V:4] _E,E,2D, | 
[V:1] e2^f2 | 
[V:2] G2A2 | 
[V:3] _B,2D2 | 
[V:4] ^C,2=C,2 | 
[V:1] g=f/ f/_e=B | 
[V:2] GG/ G/G=F | 
[V:3] DD=CG, | 
[V:4] _B,,=B,,/ B,,/C,D, | 
[V:1] c^c2c | 
[V:2] GG2G | 
[V:3] G,A,2A, | 
[V:4] _E,E,2E, | 
[V:1] d^cdc | 
[V:2] ^FGFG | 
[V:3] A,_B,A,B, | 
[V:4] D,4 | 
[V:1] !fermata!d3d | 
[V:2] !fermata!^F3G | 
[V:3] !fermata!A,3=B, | 
[V:4] !fermata!D,3[G,G,,] | 
[V:1] d3d | 
[V:2] G3G | 
[V:3] =B,3B, | 
[V:4] [G,3G,,3][G,G,,] | 
[V:1] dd/ d<dd/ | 
[V:2] G>GGG/ G/ | 
[V:3] B,>B,B,B,/ B,/ | 
[V:4] G,,>G,,G,,G,,/ G,,/ | 
[V:1] ^deze | 
[V:2] AGzG | 
[V:3] B,B,zC | 
[V:4] B,,E,zC, | 
[V:1] e3e | 
[V:2] G3G | 
[V:3] C3C | 
[V:4] C,3C, | 
[V:1] e>eea | 
[V:2] G>GGc | 
[V:3] C>CCE | 
[V:4] C,>C,C,A,, | 
[V:1] ^f/ f/gzd | 
[V:2] A/ A/GzG | 
[V:3] C/ C/B,zB, | 
[V:4] D,/ D,/G,,z2 | 
[V:1] ddzd | 
[V:2] ^GAz^F | 
[V:3] B,CzA, | 
[V:4] zD,F,D, | 
[V:1] ddzg | 
[V:2] FGzB | 
[V:3] ^A,B,zD | 
[V:4] zG,,B,,G,,/ G,/ | 
[V:1] g>ggg | 
[V:2] B>B_BB | 
[V:3] E>EEE | 
[V:4] E,>E,D,D, | 
[V:1] g2fd | 
[V:2] A2AF | 
[V:3] E2DA, | 
[V:4] ^C,2D,=C, | 
[V:1] d/f<ge/ a/ a/ | 
[V:2] GG/ B/cc | 
[V:3] G,/D/ D/ D/EE | 
[V:4] B,,>G,,C,3/A,,/ | 
[V:1] ffff | 
[V:2] AAAA | 
[V:3] CCCC | 
[V:4] D,D,^D,D, | 
[V:1] g/> g/ g/ z// =f//f2 | 
[V:2] G/> B/ B/ z// ^G//G2 | 
[V:3] B,/> E/ E/ z// B,//B,2 | 
[V:4] E,/> E,/ E,/ z// D,//D,2 | 
[V:1] ea/ a/d^f | 
[V:2] Ac/ c/BA | 
[V:3] CE/ E/DC | 
[V:4] C,C,/ C,/D,D, | 
[V:1] gzBB | 
[V:2] GzDD | 
[V:3] B,zG,G, | 
[V:4] G,,zG,,G,, | 
[V:1] B3B | 
[V:2] D3D | 
[V:3] G,3G, | 
[V:4] G,,3G,, | 
[V:1] B4 |]  
[V:2] !fermata!D4 |]  
[V:3] !fermata!G,4 |]  
[V:4] G,,4 |]  

